X: 1
T: Druid's Spell
M: 6/8
L: 1/8
R: jig
K: Bmin
baf efg|fed cec|dBF GBd|A (3cde afa|
baf def|gfe dec|dBF GBd|cBA B3|
~B3 Bcd|cBA F2E|FBd GBe|A(3cde age|
f3 afb|d'c'b afe|baf efa|d2c B2z|
B3 Bcd|cBA F2E|FBd GBe|A (3cde age|
f3 afb|d'c'b afe|baf efa|d2c B2z:|
